static/assets/template/assets/img/icons/essential/detailed/Donation.svg

<svg height="150" viewBox="0 0 105 150" width="105" xmlns="http://www.w3.org/2000/svg"><g fill="none" fill-rule="evenodd" transform="translate(1 1)"><path d="m27.2 58.5h51.7c1.3 0 2.5.7 3.2 1.8l20 31.3h-101.6l20-31.3c.7-1.1 1.9-1.8 3.2-1.8z" fill-rule="nonzero"/><g stroke-linecap="round" stroke-linejoin="round" stroke-width="3"><path d="m13.1 71.9 7.4-11.6c.7-1.1 1.9-1.8 3.2-1.8h.6"/><path d="m8 79.8.3-.5"/><path d="m77.4 58.5h1.4c1.3 0 2.5.7 3.2 1.8l18.7 29.3c.5.9-.1 2-1.1 2h-96.9c-1 0-1.6-1.1-1.1-2l3.3-5.1"/></g><g transform="translate(20)"><path d="m3.4 77.3h54.4c1.4 0 2.5-1.1 2.5-2.5v-9.2c0-1.4-1.1-2.5-2.5-2.5h-54.4c-1.4 0-2.5 1.1-2.5 2.5v9.2c0 1.4 1.1 2.5 2.5 2.5z" fill-rule="nonzero"/><path d="m14.9 77.3h35.1c2.4-3.3 3.6-7 4-10.7.1-1.2.1-2.4 0-3.6-.8-10.2-8.6-19.6-20.3-20.5 0 0-.8-.1-1.7-.1-12.6 0-21.2 9.8-22 20.5-.1 1.2-.1 2.4 0 3.6.3 3.8 2.5 7.5 4.9 10.8z" fill-rule="nonzero"/><g stroke-linecap="round" stroke-linejoin="round" stroke-width="3"><path d="m33 48.6c-.3 0-.5 0-.8 0-4.4 0-8.5 1.8-11.3 4.7"/><path d="m49.2 57.6c-1.5-3.4-3.9-6.3-6.9-8.3"/><path d="m48.2 65.1c0-.3 0-.6 0-.9"/><path d="m44.7 73.9c.8-1 1.5-2.2 2.1-3.4"/><path d="m16.4 65c.2 3.2 1.3 6.1 3.1 8.5"/><path d="m18 57.4c-.1.2-.2.4-.3.6"/></g><g transform="translate(18)"><path d="m1.7 45.4c3.4-2 7.3-3.1 11.5-3.1h1.2l.2-1.6c.2-1.4.8-2.7 1.7-3.8.1-.1.1-.2.2-.2.1-.1.1-.1.2-.2l3.9-3.8c.6-.6 1.5-.6 2.2-.2l5.6 3.6c.5.4.9 1 .9 1.6 0 .1 0 .3-.1.4 0 .1 0 .1-.1.2 0 .1-.1.1-.1.2l-.1.2-1.1 2.2-2.4 4.8-2 3.9c-.1.1-.1.3-.2.4 0 .1-.1.1-.1.2s-.1.2-.1.3c-.1.1-.1.3-.1.4s-.1.3-.1.4v.1.1.3c-.2 1.2 0 2.3.4 3.4.1.3.2.6.4.9.1.2.2.4.4.6.2.4.5.7.8 1 .6.6 1.3 1.1 2.1 1.4 1.2.6 2.7.3 3.6-.5.3-.2.5-.5.7-.9l2.2-3.7 3.9-6.7 7.6-12.9c1.2-2.1 1.9-4.4 2-6.8l.2-6.8.1-3.4c0-.6-.2-1.1-.6-1.5-2.1-2.4-9.2-10.6-12.3-14.2-.5-.6-1.2-.9-1.9-.8-.1 0-.1 0-.2 0s-.1 0-.2 0h-.1-.1c-.1 0-.1 0-.2.1-.2.1-.3.2-.5.3l-3 2.6-3.7 3.2-.2.2-2.5 2.1-16 13.6c-2.1 1.8-3.4 4.3-3.6 7.1l-1 15" fill-rule="nonzero"/><path d="m31.1 57.7c8.7-14.8 2.4-4.1 13.7-23.2 1.2-2.1 1.9-4.4 2-6.8l.2-6.8c-.1-.3-.2-.5-.4-.7-2.1-2.4-9.2-10.6-12.3-14.2-.8-1-2.3-1.1-3.2-.3l-25.4 21.7c-2.1 1.8-3.4 4.3-3.6 7.1l-.8 11.2c4-2.5 8.6-3.6 13.1-3.3.7-4.7.8-4.3 6.3-9.6.6-.6 1.5-.6 2.2-.2 7.6 5 7.3 3.9 5 8.5 0 .3 0 .6-.2.9l-.1.2-1.9 3.8-2.8 5.5s0 .2-.1.3c-.4.9-.1 5.5 4 7.3 1.5.7 3.4.1 4.3-1.4z" fill-rule="nonzero"/><g stroke-linecap="round" stroke-linejoin="round" stroke-width="3"><path d="m32.4.9c-.5 0-1 .2-1.4.5l-3 2.6"/><path d="m47 17.5-.1 3.4-.2 6.8c-.1 2.4-.7 4.7-2 6.8l-7.6 12.9-3.9 6.7-2.2 3.7c-.2.3-.4.6-.7.9-1 .8-2.4 1.1-3.6.5-.8-.4-1.5-.9-2.1-1.4-.3-.3-.6-.6-.8-1-.1-.2-.2-.4-.4-.6-.2-.3-.3-.6-.4-.9-.4-1.1-.5-2.2-.4-3.4 0-.1 0-.2 0-.3 0 0 0 0 0-.1s0 0 0-.1.1-.3.1-.4.1-.3.1-.4.1-.2.1-.3.1-.1.1-.2c.1-.1.1-.3.2-.4l2-3.9 2.4-4.8 1.1-2.2.1-.2c0-.1.1-.1.1-.2s.1-.1.1-.2.1-.3.1-.4c0-.6-.3-1.2-.9-1.6l-5.6-3.6c-.7-.4-1.6-.4-2.2.2l-3.9 3.8c-.1.1-.1.1-.2.2s-.1.1-.2.2c-.9 1.1-1.5 2.4-1.7 3.8l-.2 1.6"/><path d="m.9 46.2 1.1-16.1c.2-2.7 1.5-5.3 3.6-7.1l22.4-19.1"/></g></g><path d="m51.3 54c.2.4.5.9.7 1.3l.3.6c.1.2.2.4.2.6.2.4.4.9.5 1.3 0 .1.1.2.1.3.2.5.3 1 .4 1.5.1.3.1.6.2.9 0 .2.1.4.1.6s.1.4.1.6.1.4.1.6.1.4.1.7c0 .2 0 .5.1.7v.8.7.8c-.1 4.1-1.4 8-3.4 11.3" stroke-linecap="round" stroke-linejoin="round" stroke-width="3"/><path d="m17.3 47.4c6.5-5.5 16.2-6.9 24.3-1.8.5.3.9.5 1.4.8" stroke-linecap="round" stroke-linejoin="round" stroke-width="3"/><path d="m13.4 51.7c.1-.1.1-.2.2-.2" stroke-linecap="round" stroke-linejoin="round" stroke-width="3"/><path d="m15 77c-3.2-3.7-5.1-8.4-5.1-13.7 0-2 .3-3.9.8-5.7" stroke-linecap="round" stroke-linejoin="round" stroke-width="3"/><path d="m3.4 77.3h3.6 6.9 36.1 7.8" stroke-linecap="round" stroke-linejoin="round" stroke-width="3"/><path d="m42.4 64.4c0 .5-.4.8-.8.8h-1.9c-.4 2.7-2.4 4.1-4.4 4.1-2.3 0-3.7-1.4-4.8-4.1-.9-2.3-1.6-3.2-3-3.2-1 0-2.2.8-2.2 2.8 0 1 .2 1.8.5 2.4.2.5 0 1-.5 1.2s-1 0-1.2-.5c-.3-.7-.5-1.5-.5-2.6h-1.7c-.4 0-.8-.4-.8-.8s.4-.8.8-.8h1.8c.4-2.4 2-3.9 4.2-3.9 2.3 0 3.5 1.6 4.5 4.3.8 1.9 1.7 3 3.1 3 1.5 0 2.6-1.3 2.6-3.1 0-1.1-.3-2.1-.6-2.9-.2-.5 0-1.1.5-1.2.4-.2.9 0 1.1.5.4.9.7 2.1.7 3.3h1.8c.4-.1.8.3.8.7z" fill-rule="nonzero"/></g><path d="m98.8 146.9h-95c-1.8 0-3.3-1.5-3.3-3.3v-51c0-1.8 1.5-3.3 3.3-3.3h95c1.8 0 3.3 1.5 3.3 3.3v51c0 1.8-1.5 3.3-3.3 3.3z" fill-rule="nonzero"/><path d="m98.8 146.9h-95c-1.8 0-3.3-1.5-3.3-3.3v-51c0-1.8 1.5-3.3 3.3-3.3h95c1.8 0 3.3 1.5 3.3 3.3v51c0 1.8-1.5 3.3-3.3 3.3z" fill-rule="nonzero"/><path d="m.5 133.8v-30.6" stroke-linecap="round" stroke-linejoin="round" stroke-width="3"/><path d="m.5 95v-2.4c0-1.8 1.5-3.3 3.3-3.3h95c1.8 0 3.3 1.5 3.3 3.3v51c0 1.8-1.5 3.3-3.3 3.3h-95c-1.8 0-3.3-1.5-3.3-3.3v-2.2" stroke-linecap="round" stroke-linejoin="round" stroke-width="3"/></g></svg>

<?xml version="1.0" encoding="UTF-8"?>
<svg width="105px" height="150px" viewBox="0 0 105 150" version="1.1" xmlns="http://www.w3.org/2000/svg" xmlns:xlink="http://www.w3.org/1999/xlink">
    <!-- Generator: Sketch 51.2 (57519) - http://www.bohemiancoding.com/sketch -->
    <title>Donation</title>
    <desc>Created with Sketch.</desc>
    <defs></defs>
    <g id="Page-1" stroke="none" stroke-width="1" fill="none" fill-rule="evenodd">
        <g id="Donation" transform="translate(1.000000, 1.000000)">
            <path d="M27.2,58.5 L78.9,58.5 C80.2,58.5 81.4,59.2 82.1,60.3 L102.1,91.6 L0.5,91.6 L20.5,60.3 C21.2,59.2 22.4,58.5 23.7,58.5 L27.2,58.5" id="Shape" class="fill-neutral" fill-rule="nonzero"></path>
            <path d="M13.1,71.9 L20.5,60.3 C21.2,59.2 22.4,58.5 23.7,58.5 L24.3,58.5" id="Shape" class="stroke-primary" stroke-width="3" stroke-linecap="round" stroke-linejoin="round"></path>
            <path d="M8,79.8 L8.3,79.3" id="Shape" class="stroke-primary" stroke-width="3" stroke-linecap="round" stroke-linejoin="round"></path>
            <path d="M77.4,58.5 L78.8,58.5 C80.1,58.5 81.3,59.2 82,60.3 L100.7,89.6 C101.2,90.5 100.6,91.6 99.6,91.6 L2.7,91.6 C1.7,91.6 1.1,90.5 1.6,89.6 L4.9,84.5" id="Shape" class="stroke-primary" stroke-width="3" stroke-linecap="round" stroke-linejoin="round"></path>
            <g id="Group" transform="translate(20.000000, 0.000000)">
                <path d="M3.4,77.3 L57.8,77.3 C59.2,77.3 60.3,76.2 60.3,74.8 L60.3,65.6 C60.3,64.2 59.2,63.1 57.8,63.1 L3.4,63.1 C2,63.1 0.9,64.2 0.9,65.6 L0.9,74.8 C0.9,76.2 2,77.3 3.4,77.3 Z" id="Shape" class="fill-neutral" fill-rule="nonzero"></path>
                <path d="M14.9,77.3 L50,77.3 C52.4,74 53.6,70.3 54,66.6 C54.1,65.4 54.1,64.2 54,63 C53.2,52.8 45.4,43.4 33.7,42.5 C33.7,42.5 32.9,42.4 32,42.4 C19.4,42.4 10.8,52.2 10,62.9 C9.9,64.1 9.9,65.3 10,66.5 C10.3,70.3 12.5,74 14.9,77.3 Z" id="Shape" class="fill-neutral" fill-rule="nonzero"></path>
                <path d="M33,48.6 C32.7,48.6 32.5,48.6 32.2,48.6 C27.8,48.6 23.7,50.4 20.9,53.3" id="Shape" class="stroke-primary-300" stroke-width="3" stroke-linecap="round" stroke-linejoin="round"></path>
                <path d="M49.2,57.6 C47.7,54.2 45.3,51.3 42.3,49.3" id="Shape" class="stroke-primary-300" stroke-width="3" stroke-linecap="round" stroke-linejoin="round"></path>
                <path d="M48.2,65.1 C48.2,64.8 48.2,64.5 48.2,64.2" id="Shape" class="stroke-primary-300" stroke-width="3" stroke-linecap="round" stroke-linejoin="round"></path>
                <path d="M44.7,73.9 C45.5,72.9 46.2,71.7 46.8,70.5" id="Shape" class="stroke-primary-300" stroke-width="3" stroke-linecap="round" stroke-linejoin="round"></path>
                <path d="M16.4,65 C16.6,68.2 17.7,71.1 19.5,73.5" id="Shape" class="stroke-primary-300" stroke-width="3" stroke-linecap="round" stroke-linejoin="round"></path>
                <path d="M18,57.4 C17.9,57.6 17.8,57.8 17.7,58" id="Shape" class="stroke-primary-300" stroke-width="3" stroke-linecap="round" stroke-linejoin="round"></path>
                <g transform="translate(18.000000, 0.000000)" id="Shape">
                    <path d="M1.7,45.4 C5.1,43.4 9,42.3 13.2,42.3 C13.6,42.3 14,42.3 14.4,42.3 L14.6,40.7 C14.8,39.3 15.4,38 16.3,36.9 C16.4,36.8 16.4,36.7 16.5,36.7 C16.6,36.6 16.6,36.6 16.7,36.5 L20.6,32.7 C21.2,32.1 22.1,32.1 22.8,32.5 L28.4,36.1 C28.9,36.5 29.3,37.1 29.3,37.7 C29.3,37.8 29.3,38 29.2,38.1 C29.2,38.2 29.2,38.2 29.1,38.3 C29.1,38.4 29,38.4 29,38.5 L28.9,38.7 L27.8,40.9 L25.4,45.7 L23.4,49.6 C23.3,49.7 23.3,49.9 23.2,50 C23.2,50.1 23.1,50.1 23.1,50.2 C23.1,50.3 23,50.4 23,50.5 C22.9,50.6 22.9,50.8 22.9,50.9 C22.9,51 22.8,51.2 22.8,51.3 C22.8,51.3 22.8,51.3 22.8,51.4 C22.8,51.4 22.8,51.4 22.8,51.5 C22.8,51.6 22.8,51.7 22.8,51.8 C22.8,51.8 22.8,51.8 22.8,51.8 C22.6,53 22.8,54.1 23.2,55.2 C23.3,55.5 23.4,55.8 23.6,56.1 C23.7,56.3 23.8,56.5 24,56.7 C24.2,57.1 24.5,57.4 24.8,57.7 C25.4,58.3 26.1,58.8 26.9,59.1 C28.1,59.7 29.6,59.4 30.5,58.6 C30.8,58.4 31,58.1 31.2,57.7 L33.4,54 L37.3,47.3 L44.9,34.4 C46.1,32.3 46.8,30 46.9,27.6 L47.1,20.8 L47.2,17.4 C47.2,16.8 47,16.3 46.6,15.9 C44.5,13.5 37.4,5.3 34.3,1.7 C33.8,1.1 33.1,0.8 32.4,0.9 C32.3,0.9 32.3,0.9 32.2,0.9 C32.1,0.9 32.1,0.9 32,0.9 C32,0.9 31.9,0.9 31.9,0.9 C31.9,0.9 31.8,0.9 31.8,0.9 C31.7,0.9 31.7,0.9 31.6,1 C31.4,1.1 31.3,1.2 31.1,1.3 L28.1,3.9 L24.4,7.1 L24.2,7.3 L21.7,9.4 L5.7,23 C3.6,24.8 2.3,27.3 2.1,30.1 L1.1,45.1" class="fill-neutral" fill-rule="nonzero"></path>
                    <path d="M31.1,57.7 C39.8,42.9 33.5,53.6 44.8,34.5 C46,32.4 46.7,30.1 46.8,27.7 L47,20.9 C46.9,20.6 46.8,20.4 46.6,20.2 C44.5,17.8 37.4,9.6 34.3,6 C33.5,5 32,4.9 31.1,5.7 L5.7,27.4 C3.6,29.2 2.3,31.7 2.1,34.5 L1.3,45.7 C5.3,43.2 9.9,42.1 14.4,42.4 C15.1,37.7 15.2,38.1 20.7,32.8 C21.3,32.2 22.2,32.2 22.9,32.6 C30.5,37.6 30.2,36.5 27.9,41.1 C27.9,41.4 27.9,41.7 27.7,42 L27.6,42.2 L25.7,46 L22.9,51.5 C22.9,51.5 22.9,51.5 22.9,51.5 C22.9,51.5 22.9,51.7 22.8,51.8 C22.4,52.7 22.7,57.3 26.8,59.1 C28.3,59.8 30.2,59.2 31.1,57.7 Z" class="fill-primary-100" fill-rule="nonzero"></path>
                    <path d="M32.4,0.9 C31.9,0.9 31.4,1.1 31,1.4 L28,4" class="stroke-primary" stroke-width="3" stroke-linecap="round" stroke-linejoin="round"></path>
                    <path d="M47,17.5 L46.9,20.9 L46.7,27.7 C46.6,30.1 46,32.4 44.7,34.5 L37.1,47.4 L33.2,54.1 L31,57.8 C30.8,58.1 30.6,58.4 30.3,58.7 C29.3,59.5 27.9,59.8 26.7,59.2 C25.9,58.8 25.2,58.3 24.6,57.8 C24.3,57.5 24,57.2 23.8,56.8 C23.7,56.6 23.6,56.4 23.4,56.2 C23.2,55.9 23.1,55.6 23,55.3 C22.6,54.2 22.5,53.1 22.6,51.9 C22.6,51.9 22.6,51.9 22.6,51.9 C22.6,51.8 22.6,51.7 22.6,51.6 C22.6,51.6 22.6,51.6 22.6,51.5 C22.6,51.5 22.6,51.5 22.6,51.5 C22.6,51.5 22.6,51.5 22.6,51.4 C22.6,51.3 22.7,51.1 22.7,51 C22.7,50.9 22.8,50.7 22.8,50.6 C22.8,50.5 22.9,50.4 22.9,50.3 C22.9,50.2 23,50.2 23,50.1 C23.1,50 23.1,49.8 23.2,49.7 L25.2,45.8 L27.6,41 L28.7,38.8 L28.8,38.6 C28.8,38.5 28.9,38.5 28.9,38.4 C28.9,38.3 29,38.3 29,38.2 C29,38.1 29.1,37.9 29.1,37.8 C29.1,37.2 28.8,36.6 28.2,36.2 L22.6,32.6 C21.9,32.2 21,32.2 20.4,32.8 L16.5,36.6 C16.4,36.7 16.4,36.7 16.3,36.8 C16.2,36.9 16.2,36.9 16.1,37 C15.2,38.1 14.6,39.4 14.4,40.8 L14.2,42.4" class="stroke-primary" stroke-width="3" stroke-linecap="round" stroke-linejoin="round"></path>
                    <path d="M0.9,46.2 L2,30.1 C2.2,27.4 3.5,24.8 5.6,23 L28,3.9" class="stroke-primary" stroke-width="3" stroke-linecap="round" stroke-linejoin="round"></path>
                </g>
                <path d="M51.3,54 C51.5,54.4 51.8,54.9 52,55.3 C52.1,55.5 52.2,55.7 52.3,55.9 C52.4,56.1 52.5,56.3 52.5,56.5 C52.7,56.9 52.9,57.4 53,57.8 C53,57.9 53.1,58 53.1,58.1 C53.3,58.6 53.4,59.1 53.5,59.6 C53.6,59.9 53.6,60.2 53.7,60.5 C53.7,60.7 53.8,60.9 53.8,61.1 C53.8,61.3 53.9,61.5 53.9,61.7 C53.9,61.9 54,62.1 54,62.3 C54,62.5 54.1,62.7 54.1,63 C54.1,63.2 54.1,63.5 54.2,63.7 C54.2,64 54.2,64.3 54.2,64.5 C54.2,64.7 54.2,65 54.2,65.2 C54.2,65.5 54.2,65.7 54.2,66 C54.1,70.1 52.8,74 50.8,77.3" id="Shape" class="stroke-primary" stroke-width="3" stroke-linecap="round" stroke-linejoin="round"></path>
                <path d="M17.3,47.4 C23.8,41.9 33.5,40.5 41.6,45.6 C42.1,45.9 42.5,46.1 43,46.4" id="Shape" class="stroke-primary" stroke-width="3" stroke-linecap="round" stroke-linejoin="round"></path>
                <path d="M13.4,51.7 C13.5,51.6 13.5,51.5 13.6,51.5" id="Shape" class="stroke-primary" stroke-width="3" stroke-linecap="round" stroke-linejoin="round"></path>
                <path d="M15,77 C11.8,73.3 9.9,68.6 9.9,63.3 C9.9,61.3 10.2,59.4 10.7,57.6" id="Shape" class="stroke-primary" stroke-width="3" stroke-linecap="round" stroke-linejoin="round"></path>
                <polyline id="Shape" class="stroke-primary" stroke-width="3" stroke-linecap="round" stroke-linejoin="round" points="3.4 77.3 7 77.3 13.9 77.3 50 77.3 57.8 77.3"></polyline>
                <path d="M42.4,64.4 C42.4,64.9 42,65.2 41.6,65.2 L39.7,65.2 C39.3,67.9 37.3,69.3 35.3,69.3 C33,69.3 31.6,67.9 30.5,65.2 C29.6,62.9 28.9,62 27.5,62 C26.5,62 25.3,62.8 25.3,64.8 C25.3,65.8 25.5,66.6 25.8,67.2 C26,67.7 25.8,68.2 25.3,68.4 C24.8,68.6 24.3,68.4 24.1,67.9 C23.8,67.2 23.6,66.4 23.6,65.3 L21.9,65.3 C21.5,65.3 21.1,64.9 21.1,64.5 C21.1,64.1 21.5,63.7 21.9,63.7 L23.7,63.7 C24.1,61.3 25.7,59.8 27.9,59.8 C30.2,59.8 31.4,61.4 32.4,64.1 C33.2,66 34.1,67.1 35.5,67.1 C37,67.1 38.1,65.8 38.1,64 C38.1,62.9 37.8,61.9 37.5,61.1 C37.3,60.6 37.5,60 38,59.9 C38.4,59.7 38.9,59.9 39.1,60.4 C39.5,61.3 39.8,62.5 39.8,63.7 L41.6,63.7 C42,63.6 42.4,64 42.4,64.4 Z" id="Shape" class="fill-primary" fill-rule="nonzero"></path>
            </g>
            <path d="M98.8,146.9 L3.8,146.9 C2,146.9 0.5,145.4 0.5,143.6 L0.5,92.6 C0.5,90.8 2,89.3 3.8,89.3 L98.8,89.3 C100.6,89.3 102.1,90.8 102.1,92.6 L102.1,143.6 C102.1,145.4 100.6,146.9 98.8,146.9 Z" id="Shape" class="fill-neutral" fill-rule="nonzero"></path>
            <path d="M98.8,146.9 L3.8,146.9 C2,146.9 0.5,145.4 0.5,143.6 L0.5,92.6 C0.5,90.8 2,89.3 3.8,89.3 L98.8,89.3 C100.6,89.3 102.1,90.8 102.1,92.6 L102.1,143.6 C102.1,145.4 100.6,146.9 98.8,146.9 Z" id="Shape" class="fill-primary-300" fill-rule="nonzero"></path>
            <path d="M0.5,133.8 L0.5,103.2" id="Shape" class="stroke-primary" stroke-width="3" stroke-linecap="round" stroke-linejoin="round"></path>
            <path d="M0.5,95 L0.5,92.6 C0.5,90.8 2,89.3 3.8,89.3 L98.8,89.3 C100.6,89.3 102.1,90.8 102.1,92.6 L102.1,143.6 C102.1,145.4 100.6,146.9 98.8,146.9 L3.8,146.9 C2,146.9 0.5,145.4 0.5,143.6 L0.5,141.4" id="Shape" class="stroke-primary" stroke-width="3" stroke-linecap="round" stroke-linejoin="round"></path>
        </g>
    </g>
</svg>
